assets/images/bubbles.svg

<?xml version="1.0" encoding="utf-8"?>
<!-- Generated by IcoMoon.io -->
<!DOCTYPE svg PUBLIC "-//W3C//DTD SVG 1.1//EN" "http://www.w3.org/Graphics/SVG/1.1/DTD/svg11.dtd">
<svg version="1.1" xmlns="http://www.w3.org/2000/svg" xmlns:xlink="http://www.w3.org/1999/xlink" width="576" height="512" viewBox="0 0 576 512">
<g>
</g>
	<path d="M512 96c35.2 0 64 28.8 64 64v352l-96-96h-288c-35.2 0-64-28.8-64-64v-32h64v31.886c0.033 0.039 0.074 0.081 0.114 0.114h319.886v-191.885c-0.033-0.040-0.075-0.082-0.114-0.115h-31.886v-64h32zM384 0h-320c-35.2 0-64 28.8-64 64v320l96-96h288c35.2 0 64-28.8 64-64v-160c0-35.2-28.8-64-64-64zM384 223.886c-0.033 0.040-0.075 0.081-0.114 0.114h-319.886v-159.886c0.033-0.040 0.075-0.081 0.115-0.114h319.771c0.039 0.033 0.081 0.075 0.114 0.115v159.771z"></path>
</svg>

<svg xmlns="http://www.w3.org/2000/svg" width="576" height="512" viewBox="0 0 576 512"><path d="M512 96c35.2 0 64 28.8 64 64v352l-96-96H192c-35.2 0-64-28.8-64-64v-32h64v31.886a.944.944 0 0 0 .114.114H512V160.115a.953.953 0 0 0-.114-.115H480V96h32zM384 0H64C28.8 0 0 28.8 0 64v320l96-96h288c35.2 0 64-28.8 64-64V64c0-35.2-28.8-64-64-64zm0 223.886a.944.944 0 0 1-.114.114H64V64.114a.885.885 0 0 1 .115-.114h319.771a.953.953 0 0 1 .114.115v159.771z"/></svg>
